Numix-GalliumOS/22/status/spotify-indicator.svg

<?xml version="1.0" encoding="UTF-8" standalone="no"?>
<svg
   xmlns:dc="http://purl.org/dc/elements/1.1/"
   xmlns:cc="http://creativecommons.org/ns#"
   xmlns:rdf="http://www.w3.org/1999/02/22-rdf-syntax-ns#"
   xmlns:svg="http://www.w3.org/2000/svg"
   xmlns="http://www.w3.org/2000/svg"
   xmlns:sodipodi="http://sodipodi.sourceforge.net/DTD/sodipodi-0.dtd"
   xmlns:inkscape="http://www.inkscape.org/namespaces/inkscape"
   width="22"
   viewBox="0 0 6.208889 6.208889"
   height="22"
   id="svg2"
   version="1.1"
   inkscape:version="0.91 r"
   sodipodi:docname="spotify-indicator.svg">
  <metadata
     id="metadata53">
    <rdf:RDF>
      <cc:Work
         rdf:about="">
        <dc:format>image/svg+xml</dc:format>
        <dc:type
           rdf:resource="http://purl.org/dc/dcmitype/StillImage" />
      </cc:Work>
    </rdf:RDF>
  </metadata>
  <sodipodi:namedview
     pagecolor="#ffffff"
     bordercolor="#666666"
     borderopacity="1"
     objecttolerance="10"
     gridtolerance="10"
     guidetolerance="10"
     inkscape:pageopacity="0"
     inkscape:pageshadow="2"
     inkscape:window-width="1366"
     inkscape:window-height="747"
     id="namedview51"
     showgrid="true"
     inkscape:zoom="13.92"
     inkscape:cx="-9.6903306"
     inkscape:cy="2.0578164"
     inkscape:window-x="0"
     inkscape:window-y="21"
     inkscape:window-maximized="1"
     inkscape:current-layer="svg2">
    <inkscape:grid
       type="xygrid"
       id="grid9949" />
  </sodipodi:namedview>
  <defs
     id="defs4" />
  <path
     style="fill:#ececec;fill-opacity:1;fill-rule:evenodd"
     d="M 11 3 C 6.5679998 3 3 6.5679998 3 11 C 3 15.432 6.5679998 19 11 19 C 15.432 19 19 15.432 19 11 C 19 6.5679998 15.432 3 11 3 z M 8.875 7.90625 C 11.249109 7.8358516 14.08711 8.3645658 16 9.65625 C 16.305873 9.8636996 16.39363 10.287107 16.1875 10.59375 C 15.981409 10.899707 15.585854 10.987258 15.28125 10.78125 C 13.064222 9.2844388 9.2601779 8.9609287 7.03125 9.5 C 6.6714573 9.586203 6.3043481 9.3583906 6.21875 9 C 6.1317501 8.6422054 6.3603179 8.3050306 6.71875 8.21875 C 7.3590114 8.0640758 8.0836304 7.9297163 8.875 7.90625 z M 9.03125 10.40625 C 11.139736 10.367521 13.347602 10.953846 14.9375 12.0625 C 15.189251 12.23883 15.236787 12.560638 15.0625 12.8125 C 14.88549 13.064202 14.563681 13.174256 14.3125 13 C 12.466866 11.710366 9.5223014 11.163548 7.21875 11.71875 C 6.9197856 11.791432 6.6351945 11.611467 6.5625 11.3125 C 6.4904954 11.013576 6.6705417 10.727612 6.96875 10.65625 C 7.6269877 10.497503 8.3284216 10.419148 9.03125 10.40625 z M 9.09375 12.71875 C 10.988425 12.695674 12.610221 13.182282 13.96875 14.125 C 14.171513 14.263692 14.201197 14.515993 14.0625 14.71875 C 13.921807 14.920701 13.66939 14.983679 13.46875 14.84375 C 11.855419 13.724521 9.7308569 13.35893 7.21875 13.78125 C 6.9769572 13.821088 6.7585768 13.648718 6.71875 13.40625 C 6.6782252 13.164419 6.851239 12.946711 7.09375 12.90625 C 7.7808748 12.790462 8.4621917 12.726439 9.09375 12.71875 z "
     transform="scale(0.28222223,0.28222223)"
     id="rect31" />
</svg>

<svg xmlns="http://www.w3.org/2000/svg" width="22" viewBox="0 0 6.208889 6.208889" height="22">
 <path d="m 11 3 c -4.432 0 -8 3.568 -8 8 c 0 4.432 3.568 8 8 8 c 4.432 0 8 -3.568 8 -8 c 0 -4.432 -3.568 -8 -8 -8 z m -2.125 4.906 c 2.374 -0.07 5.212 0.458 7.125 1.75 c 0.306 0.207 0.394 0.631 0.188 0.938 c -0.206 0.306 -0.602 0.394 -0.906 0.188 c -2.217 -1.497 -6.02 -1.82 -8.25 -1.281 c -0.36 0.086 -0.727 -0.142 -0.813 -0.5 c -0.087 -0.358 0.142 -0.695 0.5 -0.781 c 0.64 -0.155 1.365 -0.289 2.156 -0.313 z m 0.156 2.5 c 2.108 -0.039 4.316 0.548 5.906 1.656 c 0.252 0.176 0.299 0.498 0.125 0.75 c -0.177 0.252 -0.499 0.362 -0.75 0.188 c -1.846 -1.29 -4.79 -1.836 -7.094 -1.281 c -0.299 0.073 -0.584 -0.107 -0.656 -0.406 c -0.072 -0.299 0.108 -0.585 0.406 -0.656 c 0.658 -0.159 1.36 -0.237 2.063 -0.25 z m 0.063 2.313 c 1.895 -0.023 3.516 0.464 4.875 1.406 c 0.203 0.139 0.232 0.391 0.094 0.594 c -0.141 0.202 -0.393 0.265 -0.594 0.125 c -1.613 -1.119 -3.738 -1.485 -6.25 -1.063 c -0.242 0.04 -0.46 -0.133 -0.5 -0.375 c -0.041 -0.242 0.132 -0.46 0.375 -0.5 c 0.687 -0.116 1.368 -0.18 2 -0.188 z" transform="scale(0.28222223,0.28222223)" style="fill:#ececec;fill-opacity:1;fill-rule:evenodd"/>
</svg>
